assets/images/logo-ycom-dark.svg

<svg fill="none" height="50" viewBox="0 0 390 50" width="390" xmlns="http://www.w3.org/2000/svg"><g clip-rule="evenodd" fill-rule="evenodd"><path d="m140 50h49.875v-50h-49.875z" fill="#fb651e"/><path d="m219.116 16.7718c-4.605 0-8.067 3.5781-8.067 8.194 0 4.616 3.462 8.2299 8.067 8.2299 2.962 0 5.532-1.5386 6.924-4.115l3.962 2.3618c-2.213 3.7927-6.353 6.2617-10.886 6.2617-7.103 0-12.742-5.6535-12.742-12.7384 0-7.0847 5.639-12.7383 12.742-12.7383 4.568 0 8.673 2.4332 10.886 6.2618l-3.962 2.3617c-1.392-2.5763-3.962-4.0792-6.924-4.0792z" fill="#fb651e"/><path d="m245.206 28.1867c0-2.8983-2.106-5.0811-4.818-5.0811-2.784 0-4.89 2.1828-4.89 5.0811 0 2.8982 2.106 5.0811 4.89 5.0811 2.677 0 4.818-2.1829 4.818-5.0811zm-14.241 0c0-5.2243 4.176-9.4108 9.423-9.4108 5.175 0 9.351 4.1865 9.351 9.4108 0 5.2242-4.176 9.4107-9.351 9.4107-5.247 0-9.423-4.1865-9.423-9.4107z" fill="#fb651e"/><path d="m279.183 26.6939v10.4938h-4.52v-9.6969c0-2.7194-1.322-4.4369-3.322-4.4369-2.036 0-3.536 1.7175-3.536 4.4369v9.6969h-4.364v-9.6969c0-2.7194-1.364-4.4369-3.375-4.4369s-3.483 1.7175-3.483 4.4369v9.6969h-4.52v-17.9688h4.52v2.3c1.107-1.725 2.821-2.8031 4.927-2.8031 2.285 0 4.106 1.2938 5.213 3.3063 1.142-1.7969 3.249-3.3063 5.891-3.3063 3.963 0 6.569 3.5219 6.569 7.9781z" fill="#fb651e"/><path d="m295.246 28.378c0-3.0057-1.856-5.1527-4.461-5.1527-2.535 0-4.462 2.0397-4.462 5.1169 0 3.0414 1.963 5.117 4.533 5.117 2.534-.0359 4.39-2.147 4.39-5.0812zm-3.506 9.2739c-2.495 0-4.339-1.143-5.387-2.7144v2.25h-4.52v-25h4.52v9.2142c1.084-1.4642 2.929-2.5358 5.315-2.5358 4.629 0 8.172 4 8.245 9.393.072 5.4642-3.544 9.393-8.173 9.393z" fill="#fb651e"/><path d="m301.783 37.1878h4.52v-17.9688h-4.52zm-.577-23.0636c0-1.5388 1.285-2.6838 2.82-2.6838 1.499 0 2.748 1.145 2.748 2.6838 0 1.5384-1.249 2.6834-2.748 2.6834-1.535 0-2.82-1.145-2.82-2.6834z" fill="#fb651e"/><path d="m325.785 26.7658v10.4219h-4.364v-9.4464c0-2.8985-1.508-4.6874-3.699-4.6874-2.406 0-4.094 2.1827-4.094 4.7589v9.3749h-4.364v-17.9688h4.364v2.2641c1.209-1.6891 3.164-2.7672 5.439-2.7672 4.017 0 6.718 3.45 6.718 8.05z" fill="#fb651e"/><path d="m339.501 29.2172v-.3869l-4.568.8947c-1.535.3576-2.463 1.145-2.463 2.1826 0 1.1047 1.021 1.9441 2.673 1.8943 2.399-.0725 4.358-2.1789 4.358-4.5847zm4.364-2.8713v10.8419h-4.364v-2.0755c-1.323 1.4313-3.398 2.5049-5.687 2.5407-3.041 0-5.724-2.0038-5.724-5.439 0-3.256 2.433-5.1168 6.046-5.8325l5.258-1.0018c-.358-1.5028-1.502-2.6478-3.219-2.6478s-3.327 1.0734-4.293 2.4331l-3.291-2.3974c1.681-2.3617 4.65-3.9361 7.584-3.9361 4.399 0 7.69 3.0416 7.69 7.5144z" fill="#fb651e"/><path d="m353.061 23.2816v7.5406c0 1.467.642 2.1469 1.963 2.1469h2.245v4.2187h-2.869c-3.826 0-5.703-1.875-5.703-5.8053v-8.1009h-3.273v-4.0625h3.117v-4.4369l4.52-1.3955v5.8324h4.208v4.0625z" fill="#fb651e"/><path d="m372.982 28.1867c0-2.8983-2.106-5.0811-4.819-5.0811-2.784 0-4.889 2.1828-4.889 5.0811 0 2.8982 2.105 5.0811 4.889 5.0811 2.677 0 4.819-2.1829 4.819-5.0811zm-14.242 0c0-5.2243 4.177-9.4108 9.423-9.4108 5.176 0 9.352 4.1865 9.352 9.4108 0 5.2242-4.176 9.4107-9.352 9.4107-5.246 0-9.423-4.1865-9.423-9.4107z" fill="#fb651e"/><path d="m390 18.8252v4.3652c-4.037 0-5.767 1.9681-5.767 4.5443v9.4528h-4.364v-17.9687h4.364v2.2541c1.226-1.61 3.208-2.6477 5.767-2.6477z" fill="#fb651e"/></g><path d="m.51709 33v-17.4546h3.63068v6.5625h.1108c.15909-.3523.3892-.7102.69034-1.0739.30682-.3693.70454-.6761 1.19318-.9204.49432-.25 1.10795-.375 1.84091-.375.95454 0 1.83523.25 2.642.75.8069.4943 1.4517 1.2415 1.9347 2.2415.483.9943.7244 2.2414.7244 3.7414 0 1.4603-.2358 2.6932-.7074 3.6989-.4659 1-1.1022 1.7585-1.909 2.2756-.80118.5113-1.69891.767-2.69322.767-.70455 0-1.30398-.1165-1.7983-.3494-.48864-.233-.8892-.5256-1.2017-.8778-.3125-.358-.55114-.7188-.71591-1.0824h-.16193v2.0966zm3.55398-6.5455c0 .7784.10795 1.4574.32386 2.0369.21591.5796.52841 1.0313.9375 1.3551.40909.3182.90625.4773 1.49148.4773.59091 0 1.09091-.1619 1.5-.4858.40909-.3295.71875-.7841.92898-1.3636.2159-.5852.32386-1.2585.32386-2.0199 0-.7557-.10512-1.4205-.31534-1.9943-.21023-.5739-.51989-1.0227-.92898-1.3466s-.91193-.4858-1.50852-.4858c-.59091 0-1.09091.1562-1.5.4687-.40341.3125-.71307.7557-.92898 1.3296s-.32386 1.25-.32386 2.0284z" fill="#fff"/><path d="m19.4397 33.2471c-.8353 0-1.5796-.1449-2.233-.4346-.6534-.2955-1.1704-.7302-1.5511-1.304-.375-.5796-.5625-1.3012-.5625-2.1648 0-.7273.1335-1.3381.4006-1.8324.267-.4943.6306-.892 1.0909-1.1932.4602-.3011.9829-.5284 1.5681-.6818.591-.1534 1.2103-.2613 1.858-.3238.7614-.0796 1.375-.1535 1.8409-.2216.4659-.0739.804-.1819 1.0142-.3239s.3154-.3523.3154-.6307v-.0511c0-.5398-.1705-.9574-.5114-1.2529-.3352-.2954-.8125-.4431-1.4318-.4431-.6534 0-1.1733.1448-1.5597.4346-.3864.2841-.642.6421-.767 1.0739l-3.358-.2727c.1705-.7955.5057-1.483 1.0057-2.0625.5-.5853 1.1449-1.0341 1.9347-1.3466.7954-.3182 1.7159-.4773 2.7613-.4773.7273 0 1.4233.0852 2.0881.2557.6704.1704 1.2642.4346 1.7812.7926.5228.3579.9347.8182 1.2358 1.3807.3012.5568.4517 1.2244.4517 2.0028v8.8296h-3.4431v-1.8154h-.1023c-.2102.4091-.4915.7699-.8438 1.0824-.3522.3068-.7755.5483-1.2699.7244-.4943.1705-1.0653.2557-1.713.2557zm1.0397-2.5057c.5341 0 1.0057-.1051 1.4148-.3153.4091-.2159.7301-.5057.9631-.8693.2329-.3637.3494-.7756.3494-1.2358v-1.3892c-.1136.0738-.2699.142-.4687.2045-.1932.0568-.412.1108-.6563.162-.2443.0454-.4886.088-.7329.1278-.2444.0341-.4659.0653-.6648.0937-.4261.0625-.7983.162-1.1165.2983-.3182.1364-.5653.3211-.7415.554-.1761.2273-.2642.5114-.2642.8523 0 .4943.179.8721.537 1.1335.3636.2557.8238.3835 1.3806.3835z" fill="#fff"/><path d="m35.5434 33.2556c-1.3409 0-2.4944-.2841-3.4603-.8522-.9602-.5739-1.6988-1.3694-2.2159-2.3864-.5113-1.017-.767-2.1875-.767-3.5114 0-1.3409.2585-2.517.7756-3.5284.5227-1.017 1.2642-1.8096 2.2244-2.3778.9602-.5739 2.1023-.8608 3.4261-.8608 1.1421 0 2.1421.2074 3 .6222.858.4147 1.537.9971 2.037 1.7471s.7755 1.6307.8267 2.6421h-3.4262c-.0966-.6535-.3523-1.179-.767-1.5767-.4091-.4035-.946-.6052-1.6108-.6052-.5625 0-1.054.1534-1.4744.4603-.4148.3011-.7387.7414-.9716 1.321-.233.5795-.3495 1.2812-.3495 2.1051 0 .8352.1137 1.5455.3409 2.1307.233.5852.5597 1.0312.9802 1.3381.4204.3068.9119.4602 1.4744.4602.4148 0 .7869-.0852 1.1165-.2557.3352-.1705.6108-.4176.8267-.7415.2216-.3295.3664-.7244.4346-1.1846h3.4262c-.0569 1-.3296 1.8806-.8182 2.642-.483.7557-1.1506 1.3466-2.0029 1.7727-.8522.4262-1.8608.6392-3.0255.6392z" fill="#fff"/><path d="m47.0043 29.2329.0085-4.3551h.5284l4.1932-4.9688h4.1676l-5.6335 6.5796h-.8608zm-3.2898 3.7671v-17.4546h3.6307v17.4546zm8.1819 0-3.8523-5.7017 2.4204-2.5654 5.6847 8.2671z" fill="#fff"/><path d="m63.1101 33.2556c-1.3466 0-2.5057-.2727-3.4772-.8181-.966-.5512-1.7103-1.3296-2.233-2.3353-.5227-1.0113-.7841-2.2074-.7841-3.588 0-1.3466.2614-2.5284.7841-3.5455.5227-1.017 1.2585-1.8097 2.2074-2.3778.9545-.5682 2.0739-.8523 3.3579-.8523.8637 0 1.6677.1392 2.412.4176.75.2727 1.4034.6847 1.9602 1.2358.5625.5511 1 1.2443 1.3125 2.0795.3125.8296.4688 1.8012.4688 2.9148v.9972h-11.054v-2.25h7.6363c0-.5227-.1136-.9858-.3409-1.3892-.2272-.4034-.5426-.7188-.946-.946-.3977-.233-.8608-.3495-1.3892-.3495-.5511 0-1.0398.1279-1.4659.3835-.4205.25-.75.5881-.9886 1.0142-.2387.4205-.3608.8893-.3665 1.4063v2.1392c0 .6477.1193 1.2074.3579 1.679.2444.4716.5881.8352 1.0313 1.0909s.9687.3835 1.5767.3835c.4034 0 .7727-.0568 1.1079-.1704.3353-.1137.6222-.2841.8608-.5114.2387-.2273.4205-.5057.5455-.8352l3.3579.2216c-.1704.8068-.5198 1.5113-1.0482 2.1136-.5228.5966-1.1989 1.0625-2.0285 1.3977-.8238.3296-1.7755.4943-2.8551.4943z" fill="#fff"/><path d="m76.3118 33.213c-.9943 0-1.8949-.2557-2.7017-.767-.8011-.5171-1.4375-1.2756-1.9091-2.2756-.4659-1.0057-.6988-2.2386-.6988-3.6989 0-1.5.2415-2.7471.7244-3.7414.483-1 1.125-1.7472 1.9261-2.2415.8069-.5 1.6904-.75 2.6506-.75.733 0 1.3438.125 1.8324.375.4943.2443.892.5511 1.1932.9204.3068.3637.5398.7216.6988 1.0739h.1108v-6.5625h3.6222v17.4546h-3.5795v-2.0966h-.1535c-.1704.3636-.4119.7244-.7244 1.0824-.3068.3522-.7074.6448-1.2017.8778-.4886.2329-1.0852.3494-1.7898.3494zm1.1506-2.8892c.5852 0 1.0795-.1591 1.483-.4773.409-.3238.7215-.7755.9375-1.3551.2215-.5795.3323-1.2585.3323-2.0369s-.1079-1.4545-.3238-2.0284-.5284-1.0171-.9375-1.3296-.9063-.4687-1.4915-.4687c-.5966 0-1.0994.1619-1.5085.4858s-.7188.7727-.929 1.3466c-.2102.5738-.3153 1.2386-.3153 1.9943 0 .7614.1051 1.4347.3153 2.0199.2159.5795.5256 1.0341.929 1.3636.4091.3239.9119.4858 1.5085.4858z" fill="#fff"/><path d="m92.3687 33v-17.4546h3.6306v6.5625h.1108c.1591-.3523.3892-.7102.6904-1.0739.3068-.3693.7045-.6761 1.1932-.9204.4943-.25 1.1079-.375 1.8409-.375.9544 0 1.8354.25 2.6424.75.806.4943 1.451 1.2415 1.934 2.2415.483.9943.725 2.2414.725 3.7414 0 1.4603-.236 2.6932-.708 3.6989-.466 1-1.102 1.7585-1.909 2.2756-.801.5113-1.699.767-2.693.767-.7045 0-1.3039-.1165-1.7983-.3494-.4886-.233-.8892-.5256-1.2017-.8778-.3125-.358-.5511-.7188-.7159-1.0824h-.1619v2.0966zm3.5539-6.5455c0 .7784.108 1.4574.3239 2.0369.2159.5796.5284 1.0313.9375 1.3551.4091.3182.9062.4773 1.4915.4773.5909 0 1.0909-.1619 1.4995-.4858.41-.3295.719-.7841.929-1.3636.216-.5852.324-1.2585.324-2.0199 0-.7557-.105-1.4205-.315-1.9943-.21-.5739-.52-1.0227-.929-1.3466-.4091-.3239-.9119-.4858-1.5085-.4858-.5909 0-1.0909.1562-1.5.4687-.4034.3125-.7131.7557-.929 1.3296s-.3239 1.25-.3239 2.0284z" fill="#fff"/><path d="m109.378 37.909c-.46 0-.892-.0369-1.296-.1107-.397-.0682-.727-.1563-.988-.2643l.818-2.7102c.426.1307.81.2017 1.151.2131.346.0114.644-.0682.894-.2386.256-.1705.463-.4603.623-.8694l.213-.5539-4.696-13.466h3.818l2.71 9.6137h.136l2.736-9.6137h3.844l-5.088 14.5057c-.244.7046-.577 1.3182-.997 1.8409-.415.5284-.941.9347-1.577 1.2188-.636.2898-1.403.4346-2.301.4346z" fill="#fff"/><path clip-rule="evenodd" d="m166.964 27.4789v11.1149h-4.208v-11.1149l-10.741-16.0727h5.13l7.735 11.8746 7.695-11.8746h5.13z" fill="#fff" fill-rule="evenodd"/></svg>

<svg width="390" height="50" viewBox="0 0 390 50" fill="none" xmlns="http://www.w3.org/2000/svg">
<path fill-rule="evenodd" clip-rule="evenodd" d="M140 50H189.875V0H140V50Z" fill="#FB651E"/>
<path fill-rule="evenodd" clip-rule="evenodd" d="M219.116 16.7718C214.511 16.7718 211.049 20.3499 211.049 24.9658C211.049 29.5818 214.511 33.1957 219.116 33.1957C222.078 33.1957 224.648 31.6571 226.04 29.0807L230.002 31.4425C227.789 35.2352 223.649 37.7042 219.116 37.7042C212.013 37.7042 206.374 32.0507 206.374 24.9658C206.374 17.8811 212.013 12.2275 219.116 12.2275C223.684 12.2275 227.789 14.6607 230.002 18.4893L226.04 20.851C224.648 18.2747 222.078 16.7718 219.116 16.7718Z" fill="#FB651E"/>
<path fill-rule="evenodd" clip-rule="evenodd" d="M245.206 28.1867C245.206 25.2884 243.1 23.1056 240.388 23.1056C237.604 23.1056 235.498 25.2884 235.498 28.1867C235.498 31.0849 237.604 33.2678 240.388 33.2678C243.065 33.2678 245.206 31.0849 245.206 28.1867ZM230.965 28.1867C230.965 22.9624 235.141 18.7759 240.388 18.7759C245.563 18.7759 249.739 22.9624 249.739 28.1867C249.739 33.4109 245.563 37.5974 240.388 37.5974C235.141 37.5974 230.965 33.4109 230.965 28.1867Z" fill="#FB651E"/>
<path fill-rule="evenodd" clip-rule="evenodd" d="M279.183 26.6939V37.1877H274.663V27.4908C274.663 24.7714 273.341 23.0539 271.341 23.0539C269.305 23.0539 267.805 24.7714 267.805 27.4908V37.1877H263.441V27.4908C263.441 24.7714 262.077 23.0539 260.066 23.0539C258.055 23.0539 256.583 24.7714 256.583 27.4908V37.1877H252.063V19.2189H256.583V21.5189C257.69 19.7939 259.404 18.7158 261.51 18.7158C263.795 18.7158 265.616 20.0096 266.723 22.0221C267.865 20.2252 269.972 18.7158 272.614 18.7158C276.577 18.7158 279.183 22.2377 279.183 26.6939Z" fill="#FB651E"/>
<path fill-rule="evenodd" clip-rule="evenodd" d="M295.246 28.378C295.246 25.3723 293.39 23.2253 290.785 23.2253C288.25 23.2253 286.323 25.265 286.323 28.3422C286.323 31.3836 288.286 33.4592 290.856 33.4592C293.39 33.4233 295.246 31.3122 295.246 28.378ZM291.74 37.6519C289.245 37.6519 287.401 36.5089 286.353 34.9375V37.1875H281.833V12.1875H286.353V21.4017C287.437 19.9375 289.282 18.8659 291.668 18.8659C296.297 18.8659 299.84 22.8659 299.913 28.2589C299.985 33.7231 296.369 37.6519 291.74 37.6519Z" fill="#FB651E"/>
<path fill-rule="evenodd" clip-rule="evenodd" d="M301.783 37.1878H306.303V19.219H301.783V37.1878ZM301.206 14.1242C301.206 12.5854 302.491 11.4404 304.026 11.4404C305.525 11.4404 306.774 12.5854 306.774 14.1242C306.774 15.6626 305.525 16.8076 304.026 16.8076C302.491 16.8076 301.206 15.6626 301.206 14.1242Z" fill="#FB651E"/>
<path fill-rule="evenodd" clip-rule="evenodd" d="M325.785 26.7658V37.1877H321.421V27.7413C321.421 24.8428 319.913 23.0539 317.722 23.0539C315.316 23.0539 313.628 25.2366 313.628 27.8128V37.1877H309.264V19.2189H313.628V21.483C314.837 19.7939 316.792 18.7158 319.067 18.7158C323.084 18.7158 325.785 22.1658 325.785 26.7658Z" fill="#FB651E"/>
<path fill-rule="evenodd" clip-rule="evenodd" d="M339.501 29.2172V28.8303L334.933 29.725C333.398 30.0826 332.47 30.87 332.47 31.9076C332.47 33.0123 333.491 33.8517 335.143 33.8019C337.542 33.7294 339.501 31.623 339.501 29.2172ZM343.865 26.3459V37.1878H339.501V35.1123C338.178 36.5436 336.103 37.6172 333.814 37.653C330.773 37.653 328.09 35.6492 328.09 32.214C328.09 28.958 330.523 27.0972 334.136 26.3815L339.394 25.3797C339.036 23.8769 337.892 22.7319 336.175 22.7319C334.458 22.7319 332.848 23.8053 331.882 25.165L328.591 22.7676C330.272 20.4059 333.241 18.8315 336.175 18.8315C340.574 18.8315 343.865 21.8731 343.865 26.3459Z" fill="#FB651E"/>
<path fill-rule="evenodd" clip-rule="evenodd" d="M353.061 23.2816V30.8222C353.061 32.2892 353.703 32.9691 355.024 32.9691H357.269V37.1878H354.4C350.574 37.1878 348.697 35.3128 348.697 31.3825V23.2816H345.424V19.2191H348.541V14.7822L353.061 13.3867V19.2191H357.269V23.2816H353.061Z" fill="#FB651E"/>
<path fill-rule="evenodd" clip-rule="evenodd" d="M372.982 28.1867C372.982 25.2884 370.876 23.1056 368.163 23.1056C365.379 23.1056 363.274 25.2884 363.274 28.1867C363.274 31.0849 365.379 33.2678 368.163 33.2678C370.84 33.2678 372.982 31.0849 372.982 28.1867ZM358.74 28.1867C358.74 22.9624 362.917 18.7759 368.163 18.7759C373.339 18.7759 377.515 22.9624 377.515 28.1867C377.515 33.4109 373.339 37.5974 368.163 37.5974C362.917 37.5974 358.74 33.4109 358.74 28.1867Z" fill="#FB651E"/>
<path fill-rule="evenodd" clip-rule="evenodd" d="M390 18.8252V23.1904C385.963 23.1904 384.233 25.1585 384.233 27.7347V37.1875H379.869V19.2188H384.233V21.4729C385.459 19.8629 387.441 18.8252 390 18.8252Z" fill="#FB651E"/>
<path d="M0.51709 33V15.5454H4.14777V22.1079H4.25857C4.41766 21.7556 4.64777 21.3977 4.94891 21.034C5.25573 20.6647 5.65345 20.3579 6.14209 20.1136C6.63641 19.8636 7.25004 19.7386 7.983 19.7386C8.93754 19.7386 9.81823 19.9886 10.625 20.4886C11.4319 20.9829 12.0767 21.7301 12.5597 22.7301C13.0427 23.7244 13.2841 24.9715 13.2841 26.4715C13.2841 27.9318 13.0483 29.1647 12.5767 30.1704C12.1108 31.1704 11.4745 31.9289 10.6677 32.446C9.86652 32.9573 8.96879 33.213 7.97448 33.213C7.26993 33.213 6.6705 33.0965 6.17618 32.8636C5.68754 32.6306 5.28698 32.338 4.97448 31.9858C4.66198 31.6278 4.42334 31.267 4.25857 30.9034H4.09664V33H0.51709ZM4.07107 26.4545C4.07107 27.2329 4.17902 27.9119 4.39493 28.4914C4.61084 29.071 4.92334 29.5227 5.33243 29.8465C5.74152 30.1647 6.23868 30.3238 6.82391 30.3238C7.41482 30.3238 7.91482 30.1619 8.32391 29.838C8.733 29.5085 9.04266 29.0539 9.25289 28.4744C9.46879 27.8892 9.57675 27.2159 9.57675 26.4545C9.57675 25.6988 9.47163 25.034 9.26141 24.4602C9.05118 23.8863 8.74152 23.4375 8.33243 23.1136C7.92334 22.7897 7.4205 22.6278 6.82391 22.6278C6.233 22.6278 5.733 22.784 5.32391 23.0965C4.9205 23.409 4.61084 23.8522 4.39493 24.4261C4.17902 25 4.07107 25.6761 4.07107 26.4545Z" fill="white"/>
<path d="M19.4397 33.2471C18.6044 33.2471 17.8601 33.1022 17.2067 32.8125C16.5533 32.517 16.0363 32.0823 15.6556 31.5085C15.2806 30.9289 15.0931 30.2073 15.0931 29.3437C15.0931 28.6164 15.2266 28.0056 15.4937 27.5113C15.7607 27.017 16.1243 26.6193 16.5846 26.3181C17.0448 26.017 17.5675 25.7897 18.1527 25.6363C18.7437 25.4829 19.363 25.375 20.0107 25.3125C20.7721 25.2329 21.3857 25.159 21.8516 25.0909C22.3175 25.017 22.6556 24.909 22.8658 24.767C23.076 24.625 23.1812 24.4147 23.1812 24.1363V24.0852C23.1812 23.5454 23.0107 23.1278 22.6698 22.8323C22.3346 22.5369 21.8573 22.3892 21.238 22.3892C20.5846 22.3892 20.0647 22.534 19.6783 22.8238C19.2919 23.1079 19.0363 23.4659 18.9113 23.8977L15.5533 23.625C15.7238 22.8295 16.059 22.142 16.559 21.5625C17.059 20.9772 17.7039 20.5284 18.4937 20.2159C19.2891 19.8977 20.2096 19.7386 21.255 19.7386C21.9823 19.7386 22.6783 19.8238 23.3431 19.9943C24.0135 20.1647 24.6073 20.4289 25.1243 20.7869C25.6471 21.1448 26.059 21.6051 26.3601 22.1676C26.6613 22.7244 26.8118 23.392 26.8118 24.1704V33H23.3687V31.1846H23.2664C23.0562 31.5937 22.7749 31.9545 22.4226 32.267C22.0704 32.5738 21.6471 32.8153 21.1527 32.9914C20.6584 33.1619 20.0874 33.2471 19.4397 33.2471ZM20.4794 30.7414C21.0135 30.7414 21.4851 30.6363 21.8942 30.4261C22.3033 30.2102 22.6243 29.9204 22.8573 29.5568C23.0902 29.1931 23.2067 28.7812 23.2067 28.321V26.9318C23.0931 27.0056 22.9368 27.0738 22.738 27.1363C22.5448 27.1931 22.326 27.2471 22.0817 27.2983C21.8374 27.3437 21.5931 27.3863 21.3488 27.4261C21.1044 27.4602 20.8829 27.4914 20.684 27.5198C20.2579 27.5823 19.8857 27.6818 19.5675 27.8181C19.2493 27.9545 19.0022 28.1392 18.826 28.3721C18.6499 28.5994 18.5618 28.8835 18.5618 29.2244C18.5618 29.7187 18.7408 30.0965 19.0988 30.3579C19.4624 30.6136 19.9226 30.7414 20.4794 30.7414Z" fill="white"/>
<path d="M35.5434 33.2556C34.2025 33.2556 33.049 32.9715 32.0831 32.4034C31.1229 31.8295 30.3843 31.034 29.8672 30.017C29.3559 29 29.1002 27.8295 29.1002 26.5056C29.1002 25.1647 29.3587 23.9886 29.8758 22.9772C30.3985 21.9602 31.14 21.1676 32.1002 20.5994C33.0604 20.0255 34.2025 19.7386 35.5263 19.7386C36.6684 19.7386 37.6684 19.946 38.5263 20.3608C39.3843 20.7755 40.0633 21.3579 40.5633 22.1079C41.0633 22.8579 41.3388 23.7386 41.39 24.75H37.9638C37.8672 24.0965 37.6115 23.571 37.1968 23.1733C36.7877 22.7698 36.2508 22.5681 35.586 22.5681C35.0235 22.5681 34.532 22.7215 34.1116 23.0284C33.6968 23.3295 33.3729 23.7698 33.14 24.3494C32.907 24.9289 32.7905 25.6306 32.7905 26.4545C32.7905 27.2897 32.9042 28 33.1314 28.5852C33.3644 29.1704 33.6911 29.6164 34.1116 29.9233C34.532 30.2301 35.0235 30.3835 35.586 30.3835C36.0008 30.3835 36.3729 30.2983 36.7025 30.1278C37.0377 29.9573 37.3133 29.7102 37.5292 29.3863C37.7508 29.0568 37.8956 28.6619 37.9638 28.2017H41.39C41.3331 29.2017 41.0604 30.0823 40.5718 30.8437C40.0888 31.5994 39.4212 32.1903 38.5689 32.6164C37.7167 33.0426 36.7081 33.2556 35.5434 33.2556Z" fill="white"/>
<path d="M47.0043 29.2329L47.0128 24.8778H47.5412L51.7344 19.909H55.902L50.2685 26.4886H49.4077L47.0043 29.2329ZM43.7145 33V15.5454H47.3452V33H43.7145ZM51.8964 33L48.0441 27.2983L50.4645 24.7329L56.1492 33H51.8964Z" fill="white"/>
<path d="M63.1101 33.2556C61.7635 33.2556 60.6044 32.9829 59.6329 32.4375C58.6669 31.8863 57.9226 31.1079 57.3999 30.1022C56.8772 29.0909 56.6158 27.8948 56.6158 26.5142C56.6158 25.1676 56.8772 23.9858 57.3999 22.9687C57.9226 21.9517 58.6584 21.159 59.6073 20.5909C60.5618 20.0227 61.6812 19.7386 62.9652 19.7386C63.8289 19.7386 64.6329 19.8778 65.3772 20.1562C66.1272 20.4289 66.7806 20.8409 67.3374 21.392C67.8999 21.9431 68.3374 22.6363 68.6499 23.4715C68.9624 24.3011 69.1187 25.2727 69.1187 26.3863V27.3835H58.0647V25.1335H65.701C65.701 24.6108 65.5874 24.1477 65.3601 23.7443C65.1329 23.3409 64.8175 23.0255 64.4141 22.7983C64.0164 22.5653 63.5533 22.4488 63.0249 22.4488C62.4738 22.4488 61.9851 22.5767 61.559 22.8323C61.1385 23.0823 60.809 23.4204 60.5704 23.8465C60.3317 24.267 60.2096 24.7358 60.2039 25.2528V27.392C60.2039 28.0397 60.3232 28.5994 60.5618 29.071C60.8062 29.5426 61.1499 29.9062 61.5931 30.1619C62.0363 30.4176 62.5618 30.5454 63.1698 30.5454C63.5732 30.5454 63.9425 30.4886 64.2777 30.375C64.613 30.2613 64.8999 30.0909 65.1385 29.8636C65.3772 29.6363 65.559 29.3579 65.684 29.0284L69.0419 29.25C68.8715 30.0568 68.5221 30.7613 67.9937 31.3636C67.4709 31.9602 66.7948 32.4261 65.9652 32.7613C65.1414 33.0909 64.1897 33.2556 63.1101 33.2556Z" fill="white"/>
<path d="M76.3118 33.213C75.3175 33.213 74.4169 32.9573 73.6101 32.446C72.809 31.9289 72.1726 31.1704 71.701 30.1704C71.2351 29.1647 71.0022 27.9318 71.0022 26.4715C71.0022 24.9715 71.2437 23.7244 71.7266 22.7301C72.2096 21.7301 72.8516 20.9829 73.6527 20.4886C74.4596 19.9886 75.3431 19.7386 76.3033 19.7386C77.0363 19.7386 77.6471 19.8636 78.1357 20.1136C78.63 20.3579 79.0277 20.6647 79.3289 21.034C79.6357 21.3977 79.8687 21.7556 80.0277 22.1079H80.1385V15.5454H83.7607V33H80.1812V30.9034H80.0277C79.8573 31.267 79.6158 31.6278 79.3033 31.9858C78.9965 32.338 78.5959 32.6306 78.1016 32.8636C77.613 33.0965 77.0164 33.213 76.3118 33.213ZM77.4624 30.3238C78.0476 30.3238 78.5419 30.1647 78.9454 29.8465C79.3544 29.5227 79.6669 29.071 79.8829 28.4914C80.1044 27.9119 80.2152 27.2329 80.2152 26.4545C80.2152 25.6761 80.1073 25 79.8914 24.4261C79.6755 23.8522 79.363 23.409 78.9539 23.0965C78.5448 22.784 78.0476 22.6278 77.4624 22.6278C76.8658 22.6278 76.363 22.7897 75.9539 23.1136C75.5448 23.4375 75.2351 23.8863 75.0249 24.4602C74.8147 25.034 74.7096 25.6988 74.7096 26.4545C74.7096 27.2159 74.8147 27.8892 75.0249 28.4744C75.2408 29.0539 75.5505 29.5085 75.9539 29.838C76.363 30.1619 76.8658 30.3238 77.4624 30.3238Z" fill="white"/>
<path d="M92.3687 33V15.5454H95.9993V22.1079H96.1101C96.2692 21.7556 96.4993 21.3977 96.8005 21.034C97.1073 20.6647 97.505 20.3579 97.9937 20.1136C98.488 19.8636 99.1016 19.7386 99.8346 19.7386C100.789 19.7386 101.67 19.9886 102.477 20.4886C103.283 20.9829 103.928 21.7301 104.411 22.7301C104.894 23.7244 105.136 24.9715 105.136 26.4715C105.136 27.9318 104.9 29.1647 104.428 30.1704C103.962 31.1704 103.326 31.9289 102.519 32.446C101.718 32.9573 100.82 33.213 99.826 33.213C99.1215 33.213 98.5221 33.0965 98.0277 32.8636C97.5391 32.6306 97.1385 32.338 96.826 31.9858C96.5135 31.6278 96.2749 31.267 96.1101 30.9034H95.9482V33H92.3687ZM95.9226 26.4545C95.9226 27.2329 96.0306 27.9119 96.2465 28.4914C96.4624 29.071 96.7749 29.5227 97.184 29.8465C97.5931 30.1647 98.0902 30.3238 98.6755 30.3238C99.2664 30.3238 99.7664 30.1619 100.175 29.838C100.585 29.5085 100.894 29.0539 101.104 28.4744C101.32 27.8892 101.428 27.2159 101.428 26.4545C101.428 25.6988 101.323 25.034 101.113 24.4602C100.903 23.8863 100.593 23.4375 100.184 23.1136C99.7749 22.7897 99.2721 22.6278 98.6755 22.6278C98.0846 22.6278 97.5846 22.784 97.1755 23.0965C96.7721 23.409 96.4624 23.8522 96.2465 24.4261C96.0306 25 95.9226 25.6761 95.9226 26.4545Z" fill="white"/>
<path d="M109.378 37.909C108.918 37.909 108.486 37.8721 108.082 37.7983C107.685 37.7301 107.355 37.642 107.094 37.534L107.912 34.8238C108.338 34.9545 108.722 35.0255 109.063 35.0369C109.409 35.0483 109.707 34.9687 109.957 34.7983C110.213 34.6278 110.42 34.338 110.58 33.9289L110.793 33.375L106.097 19.909H109.915L112.625 29.5227H112.761L115.497 19.909H119.341L114.253 34.4147C114.009 35.1193 113.676 35.7329 113.256 36.2556C112.841 36.784 112.315 37.1903 111.679 37.4744C111.043 37.7642 110.276 37.909 109.378 37.909Z" fill="white"/>
<path fill-rule="evenodd" clip-rule="evenodd" d="M166.964 27.4789V38.5938H162.756V27.4789L152.015 11.4062H157.145L164.88 23.2808L172.575 11.4062H177.705L166.964 27.4789Z" fill="white"/>
</svg>
